public/images/designs.svg

<?xml version="1.0" ?><svg height="32" id="icon" viewBox="0 0 32 32" width="32" xmlns="http://www.w3.org/2000/svg"><defs><style>
      .cls-1 {
        fill: none;
      }
    </style></defs><title/><polygon points="4 20 4 22 8.586 22 2 28.586 3.414 30 10 23.414 10 28 12 28 12 20 4 20"/><path d="M23.5,4H8.5L1.7158,13.0454,6.01,18l1.5114-1.31L5.19,14h5.2554L16,22.8867,21.5544,14H26.81L15.8125,26.6919,17.3242,28l12.96-14.9546ZM5,12,9.5,6h4.6958l-3.75,6ZM16,6.8867,19.1958,12H12.8042Zm0,12.2266L12.8044,14h6.3912ZM21.5542,12l-3.75-6H22.5L27,12Z" transform="translate(0)"/><rect class="cls-1" data-name="&lt;Transparent Rectangle&gt;" height="32" id="_Transparent_Rectangle_" width="32"/></svg>

<?xml version="1.0" encoding="UTF-8"?>
<svg id="icon" xmlns="http://www.w3.org/2000/svg" version="1.1" viewBox="0 0 32 32">
  <!-- Generator: Adobe Illustrator 29.4.0, SVG Export Plug-In . SVG Version: 2.1.0 Build 152)  -->
  <defs>
    <style>
      .st0 {
        fill: none;
      }
    </style>
  </defs>
  <polygon points="4 20 4 22 8.59 22 2 28.59 3.41 30 10 23.41 10 28 12 28 12 20 4 20"/>
  <path d="M23.5,4h-15L1.72,13.05l4.29,4.95,1.51-1.31-2.33-2.69h5.26l5.55,8.89,5.55-8.89h5.26l-11,12.69,1.51,1.31,12.96-14.95-6.78-9.05ZM5,12l4.5-6h4.7l-3.75,6h-5.45ZM21.55,12l-3.75-6h4.7l4.5,6h-5.45Z"/>
  <polygon points="19.2 14 16 19.11 12.8 14 19.2 14"/>
  <polygon points="19.2 12 12.8 12 16 6.89 19.2 12"/>
  <rect id="_Transparent_Rectangle_" class="st0" width="32" height="32"/>
</svg>
